src/icons/services/ai.svg

<svg width="52" height="52" viewBox="0 0 52 52" fill="none" xmlns="http://www.w3.org/2000/svg">
<path d="M45.9054 41.8438C49.0741 39.5688 51.1866 36.1562 51.1866 32.2563C51.1866 25.2688 44.4429 19.5 35.9929 19.5C27.5429 19.5 20.8804 25.1875 20.8804 32.175C20.8804 39.1625 27.6241 44.85 35.9929 44.85C37.6991 44.85 39.4054 44.6063 40.9491 44.2C41.0304 44.1188 41.1929 44.1187 41.4366 44.1187C41.6804 44.1187 42.0054 44.2 42.2491 44.3625L45.5804 46.3125C45.6616 46.3937 45.6616 46.3937 45.8241 46.3937C46.0679 46.3937 46.3116 46.15 46.3116 45.9062C46.3116 45.825 46.2304 45.6625 46.2304 45.5812C46.2304 45.5 45.7429 43.9563 45.6616 42.9813C45.6616 42.9 45.6616 42.7375 45.6616 42.6562C45.4991 42.3312 45.6616 42.0063 45.9054 41.8438ZM30.9554 30.3062C29.8179 30.3062 28.9241 29.4125 28.9241 28.275C28.9241 27.1375 29.8179 26.2437 30.9554 26.2437C32.0929 26.2437 32.9866 27.1375 32.9866 28.275C32.9866 29.4125 32.0929 30.3062 30.9554 30.3062ZM41.0304 30.3062C39.8929 30.3062 38.9991 29.4125 38.9991 28.275C38.9991 27.1375 39.8929 26.2437 41.0304 26.2437C42.1679 26.2437 43.0616 27.1375 43.0616 28.275C43.0616 29.4125 42.2491 30.3062 41.0304 30.3062Z" fill="#9D74D3"/>
<path d="M35.9937 18.525C36.3187 18.525 36.5625 18.525 37.05 18.525C35.5875 11.2937 28.0312 5.6875 19.0125 5.6875C9.01875 5.76875 0.8125 12.5125 0.8125 20.8813C0.8125 25.5938 3.25 29.575 7.15 32.3375C7.475 32.5812 7.6375 32.9062 7.6375 33.3937C7.6375 33.475 7.55625 33.6375 7.55625 33.7188C7.23125 34.8563 6.74375 36.725 6.74375 36.8062C6.5 36.9688 6.5 37.05 6.5 37.2938C6.5 37.6188 6.74375 37.8625 7.15 37.8625C7.23125 37.8625 7.39375 37.7812 7.475 37.7812L11.4563 35.5063C11.7 35.425 12.1062 35.2625 12.5125 35.2625C12.5938 35.2625 12.8375 35.3438 13.0813 35.3438C14.95 35.9125 16.9812 36.1562 19.0125 36.1562C19.3375 36.1562 19.5813 36.1562 20.0688 36.1562C19.7438 35.0187 19.5 33.7188 19.5 32.5C19.5 24.5375 26.8125 18.525 35.9937 18.525ZM25.1062 13.5688C26.4875 13.5688 27.5438 14.7063 27.5438 16.0063C27.5438 17.3063 26.4062 18.4438 25.1062 18.4438C23.8062 18.4438 22.6687 17.3063 22.6687 16.0063C22.6687 14.7063 23.725 13.5688 25.1062 13.5688ZM12.9187 18.525C11.5375 18.525 10.4812 17.3875 10.4812 16.0875C10.4812 14.7875 11.6187 13.65 12.9187 13.65C14.2188 13.65 15.3562 14.7875 15.3562 16.0875C15.3562 17.3875 14.3 18.525 12.9187 18.525Z" fill="#9D74D3"/>
</svg>

<svg xmlns="http://www.w3.org/2000/svg" width="52" height="52" fill="#9d74d3"  ><path d="M45.905 41.844c3.169-2.275 5.281-5.688 5.281-9.587 0-6.988-6.744-12.756-15.194-12.756S20.88 25.188 20.88 32.175 27.624 44.85 35.993 44.85a19.72 19.72 0 0 0 4.956-.65c.081-.081.244-.081.487-.081a1.57 1.57 0 0 1 .813.244l3.331 1.95c.081.081.081.081.244.081.244 0 .487-.244.487-.488 0-.081-.081-.244-.081-.325s-.488-1.625-.569-2.6v-.325c-.163-.325 0-.65.244-.812zm-14.95-11.538a2.01 2.01 0 0 1-2.031-2.031 2.01 2.01 0 0 1 2.031-2.031 2.01 2.01 0 0 1 2.031 2.031 2.01 2.01 0 0 1-2.031 2.031zm10.075 0a2.01 2.01 0 0 1-2.031-2.031 2.032 2.032 0 1 1 4.063 0c0 1.138-.812 2.031-2.031 2.031zm-5.036-11.781h1.056c-1.462-7.231-9.019-12.837-18.037-12.837-9.994.081-18.2 6.825-18.2 15.194 0 4.713 2.438 8.694 6.338 11.456.325.244.487.569.487 1.056 0 .081-.081.244-.081.325-.325 1.137-.812 3.006-.812 3.087-.244.163-.244.244-.244.488 0 .325.244.569.65.569.081 0 .244-.081.325-.081l3.981-2.275c.244-.081.65-.244 1.056-.244.081 0 .325.081.569.081 1.869.569 3.9.812 5.931.812h1.056c-.325-1.137-.569-2.437-.569-3.656 0-7.962 7.313-13.975 16.494-13.975zm-10.887-4.956c1.381 0 2.438 1.138 2.438 2.438s-1.138 2.438-2.438 2.438-2.437-1.137-2.437-2.437 1.056-2.437 2.438-2.437zm-12.188 4.956c-1.381 0-2.437-1.137-2.437-2.437s1.138-2.437 2.438-2.437 2.438 1.137 2.438 2.437-1.056 2.438-2.437 2.438z"/></svg>
